X: 36
T: Praeludia organi op. 5
C: Franciszek Walczyński
%%abc-version 2.0
%%abcx-abcm2ps-target-version 5.9.1 (29 Sep 2008)
%%abc-creator hum2abc beta
%%abcx-conversion-date 2021/10/04 07:38:39
%%abc-edited-by Andrzej Borzym
%%abc-edited-by Krzysztof Stępień
%%abcx-initial-encoding-date 2021-07-26
%%humdrum-veritas 1235105101
%%humdrum-veritas-data 167631519
%%linebreak <none>
%%barnumbers 0
L: 1/8
M: 2/4
N: Derived from pl-kozmzk--mzk-m-159--025_walczynski-franciszek--praeludia-organi-op-5.krn
Q: "25."
%%staves {1 2}
V: 1 clef=treble
V: 2 clef=bass
K: B
[V:1] z4 & z4 | 
[V:2] G,A,B,G, & z4 | 
[V:1] z4 & DEDC | 
[V:2] ^^F,4 & z4 | 
[V:1] z4 & B,^B,CG | 
[V:2] G,F,E,C, & z4 | 
[V:1] z4 & ^^F4 | 
[V:2] D,E,D,C, & z4 | 
[V:1] z4 & GFEC | 
[V:2] ^B,,2C,E, & z4 | 
[V:1] z4 & B,2A,2 | 
[V:2] D,G,2^^F, & z4 | 
[V:1] z4 & B,4 | 
[V:2] G,D,E,D, & z4 | 
[V:1] ^B,CDB, & G,4 | 
[V:2] F,4- & G,,4- | 
[V:1] !accent!C3C & G,3^^F, | 
[V:2] F,E,D,E, & G,,4- | 
[V:1] !fermata!^B,4 & G,4 |]  
[V:2] D,4 & !fermata!G,,4 |]  


